material/.icons/material/format-list-bulleted-square.svg

<svg xmlns="http://www.w3.org/2000/svg" viewBox="0 0 24 24"><path d="M3 4h4v4H3V4m6 1v2h12V5H9m-6 5h4v4H3v-4m6 1v2h12v-2H9m-6 5h4v4H3v-4m6 1v2h12v-2H9"/></svg>

<?xml version="1.0" encoding="UTF-8"?><!DOCTYPE svg PUBLIC "-//W3C//DTD SVG 1.1//EN" "http://www.w3.org/Graphics/SVG/1.1/DTD/svg11.dtd"><svg xmlns="http://www.w3.org/2000/svg" xmlns:xlink="http://www.w3.org/1999/xlink" version="1.1" id="mdi-format-list-bulleted-square" width="24" height="24" viewBox="0 0 24 24"><path d="M3,4H7V8H3V4M9,5V7H21V5H9M3,10H7V14H3V10M9,11V13H21V11H9M3,16H7V20H3V16M9,17V19H21V17H9" /></svg>
